!!!COM: Palestrina, Giovanni Perluigi da
!!!OPR: Sine nomine (1591)
!!!OTL: Kyrie
**kern	**kern	**kern	**kern	**kern	**kern
*Ibass	*Itenor	*Itenor	*Icalto	*Icant	*Icant
!Bassus	!Tenor 2	!Tenor 1	!Altus	!Cantus 2	!Cantus 1
*clefF4	*clefGv2	*clefGv2	*clefG2	*clefG2	*clefG2
*k[b-]	*k[b-]	*k[b-]	*k[b-]	*k[b-]	*k[b-]
*G:dor	*G:dor	*G:dor	*G:dor	*G:dor	*G:dor
*M4/2	*M4/2	*M4/2	*M4/2	*M4/2	*M4/2
=1	=1	=1	=1	=1	=1
1D	1r	1r	0r	0r	0r
2.F	1D	[1A	.	.	.
4E	.	.	.	.	.
=2	=2	=2	=2	=2	=2
4D	1.F	1A]	0r	0r	0r
4C	.	.	.	.	.
1D	.	.	.	.	.
.	.	[1A	.	.	.
4C	4E	.	.	.	.
4BB	4D	.	.	.	.
=3	=3	=3	=3	=3	=3
2C#	2E	2A]	1r	0r	0r
2D	2F	2A	.	.	.
4GG	1G	2B-	1d	.	.
4AA	.	.	.	.	.
4BB-	.	2B-	.	.	.
4C	.	.	.	.	.
=4	=4	=4	=4	=4	=4
4D	2F	0A	2.f	1d	0a
4E	.	.	.	.	.
2.F	2.D	.	.	.	.
.	.	.	4e	.	.
.	.	.	4d	[1f	.
4E	4E	.	4c	.	.
2D	4F	.	[2d	.	.
.	4G	.	.	.	.
=5	=5	=5	=5	=5	=5
1AA	1.A	0r	2d]	2f]	1.a
.	.	.	4c	4e	.
.	.	.	4B	4d	.
1r	.	.	2c#	2e	.
.	2D	.	2d	2f	2a
=6	=6	=6	=6	=6	=6
1r	1d	1r	4G	1g	2b-
.	.	.	4A	.	.
.	.	.	4B-	.	2b-
.	.	.	4c	.	.
1D	1r	2r	2.d	2.f	[1a
.	.	2A	.	.	.
.	.	.	4e	4e	.
=7	=7	=7	=7	=7	=7
2D	1r	2A	2f	2d	0a]
2C#	.	2A	2.e	2e	.
1D	1A	2F	.	2.f	.
.	.	.	4d	.	.
.	.	2D	[2d	.	.
.	.	.	.	4g	.
=8	=8	=8	=8	=8	=8
1AA	2A	1E	2d]	1a	2r
.	2A	.	2c#	.	2a
1BB-	2F	1D	1d	2r	2a
.	2D	.	.	2dd	2g
=9	=9	=9	=9	=9	=9
1AA	1E	1r	2r	2dd	1a
.	.	.	2e	2cc#	.
1r	2.D	2r	[1f	1dd	1a
.	.	2d	.	.	.
.	4E	.	.	.	.
=10	=10	=10	=10	=10	=10
0r	4F	2d	2f]	2a	0r
.	4G	.	.	.	.
.	2A	2c#	2e	2a	.
.	2D	2d	2f	2a	.
.	2d	2B-	2d	2g	.
=11	=11	=11	=11	=11	=11
0r	2d	1A	1e	1a	1r
.	2c#	.	.	.	.
.	1d	1D	1f	1a	2r
.	.	.	.	.	2dd
=12	=12	=12	=12	=12	=12
1r	2G	0r	1e	2b-	2dd
.	2A	.	.	2a	2cc#
2r	2.B-	.	[1d	2f	1dd
2G	.	.	.	[2b-	.
.	4c	.	.	.	.
=13	=13	=13	=13	=13	=13
2G	2d	0r	0d]	2b-]	2g
2F#	2D	.	.	1a	2a
1G	4G	.	.	.	1b-
.	4A	.	.	.	.
.	4B-	.	.	[2g	.
.	4c	.	.	.	.
=14	=14	=14	=14	=14	=14
1D	1d	0r	2r	4g]	[0a
.	.	.	.	4f	.
.	.	.	2d	4f	.
.	.	.	.	8e	.
.	.	.	.	8d	.
2.A	1r	.	2d	1e	.
.	.	.	2c#	.	.
4G	.	.	.	.	.
=15	=15	=15	=15	=15	=15
2F	0r	2r	1d	1f	1a]
2D	.	2d	.	.	.
1E-	.	2d	1G	2.g	2r
.	.	2c	.	.	2g
.	.	.	.	4a	.
=16	=16	=16	=16	=16	=16
1D	1r	1d	2r	2b-	2g
.	.	.	2A	2a	2f#
2.GG	2r	1d	2B-	[1dd	2g
.	2G	.	2c	.	[2b-
4AA	.	.	.	.	.
=17	=17	=17	=17	=17	=17
4BB-	2G	2r	1.d	0dd]	2b-]
4C	.	.	.	.	.
2D	2F#	2d	.	.	2.a
1GG	1G	2B-	.	.	.
.	.	.	.	.	4g
.	.	2G	2d	.	[2g
=18	=18	=18	=18	=18	=18
2r	1D	1A	1d	1r	2g]
2D	.	.	.	.	2f#
2D	1E-	1G	2B-	2r	2.g
2C	.	.	2G	2g	.
.	.	.	.	.	4a
=19	=19	=19	=19	=19	=19
1D	2D	1r	0d	2g	2b-
.	2d	.	.	2f#	2a
2.GG	2B-	2r	.	2g	1g
.	2G	2G	.	[2b-	.
4AA	.	.	.	.	.
=20	=20	=20	=20	=20	=20
4BB-	1d	2G	2r	2b-]	2r
4C	.	.	.	.	.
2D	.	2F#	2d	2a	2a
[1GG	2.d	1G	2B-	2g	2b-
.	.	.	2G	[2b-	2b-
.	4c	.	.	.	.
=21	=21	=21	=21	=21	=21
1GG]	1B-	0D	0d	4b-]	1g
.	.	.	.	4a	.
.	.	.	.	1g	.
1D	1A	.	.	.	1a
.	.	.	.	2f#	.
=22	=22	=22	=22	=22	=22
[0GG	[0G	[0D	[0d	[0g	[0b
=23	=23	=23	=23	=23	=23
0GG]	0G]	0D]	0d]	0g]	0b]
*	*	*	*	*-	*-
!! Christe
*Itenor	*Icalto	*Icant	*Icant
!Tenor	!Altus	!Cantus 2	!Cantus 1
*clefGv2	*clefG2	*clefG2	*clefG2
*k[b-]	*k[b-]	*k[b-]	*k[b-]
*G:dor	*G:dor	*G:dor	*G:dor
*M4/2	*M4/2	*M4/2	*M4/2
=24	=24	=24	=24
0r	1c	1r	0r
.	2c	1g	.
.	2c	.	.
=25	=25	=25	=25
1G	2e-	2g	0r
.	4d	2g	.
.	4c	.	.
2G	2B-	2.b-	.
2G	2e-	.	.
.	.	8a	.
.	.	8g	.
=26	=26	=26	=26
2.B-	2.d	2f	0r
.	.	2b-	.
8A	8c	.	.
8G	8B-	.	.
2F	2c	2a	.
[2B-	[2d	[2g	.
=27	=27	=27	=27
2B-]	2d]	4g]	1r
.	.	4f	.
2A	2c	2f	.
2.G	2.B-	4e-	1g
.	.	4d	.
.	.	[2d	.
4F	4A	.	.
=28	=28	=28	=28
1E-	2G	2d]	2g
.	1g	2c	2g
[1D	.	[1d	2b-
.	2f	.	4a
.	.	.	4g
=29	=29	=29	=29
0D]	2r	1d]	2f
.	2d	.	2b-
.	2d	2r	4a
.	.	.	4g
.	2d	2a	4f
.	.	.	4e
=30	=30	=30	=30
0r	2.f	2a	1d
.	.	2a	.
.	8e	.	.
.	8d	.	.
.	2c	2cc	2e
.	2d	4b-	2f
.	.	4a	.
=31	=31	=31	=31
0r	2G	2b-	2g
.	2A	1a	4f
.	.	.	4e
.	1B-	.	2d
.	.	2g	[2dd
=32	=32	=32	=32
2r	1A	2f	2dd]
2A	.	4e	4cc
.	.	4d	4b-
2A	2r	1e	2.cc
2A	2e	.	.
.	.	.	8b-
.	.	.	8a
=33	=33	=33	=33
2.c	2e	0r	2g
.	2e	.	2a
8B-	.	.	.
8A	.	.	.
2G	2g	.	2b-
2A	4f	.	[2a
.	4e	.	.
=34	=34	=34	=34
2B-	2d	1r	2a]
2c	2e	.	2g
2.F	2f	2r	2a
.	[2d	2a	2f
4G	.	.	.
=35	=35	=35	=35
1.A	2d]	2a	1e
.	2c	2a	.
.	1f	2cc	1r
2B-	.	4b-	.
.	.	4a	.
=36	=36	=36	=36
2c	2e	2g	0r
2A	2c	2a	.
4G	2d	1b-	.
4A	.	.	.
4B-	[2g	.	.
4c	.	.	.
=37	=37	=37	=37
2d	2g]	2a	1r
2c	2f	1dd	.
2B-	2d	.	1g
2c	2e-	2cc	.
=38	=38	=38	=38
1.G	1d	2.b-	2g
.	.	.	2g
.	.	4a	.
.	1r	2g	2b-
2A	.	4f	4a
.	.	4e	4g
=39	=39	=39	=39
2B-	2r	2d	2f
2G	2d	2g	2b-
1D	2d	2.f	[1a
.	2d	.	.
.	.	4g	.
=40	=40	=40	=40
0r	2f	4a	2a]
.	.	4b-	.
.	4e	2.cc	4g
.	4d	.	4f
.	2c	.	4e
.	.	4b-	4f
.	2e-	2g	[2g
=41	=41	=41	=41
1r	1d	1a	2g]
.	.	.	2f#
2r	1G	2.b-	2.g
2G	.	.	.
.	.	4a	4a
=42	=42	=42	=42
2G	0r	1g	4b-
.	.	.	4cc
2G	.	.	1dd
2B-	.	2f	.
4A	.	[2a	4cc
4G	.	.	4b-
=43	=43	=43	=43
2F	2r	2a]	2cc
2G	2d	1g	2b-
1D	2d	.	1a
.	2d	2f#	.
=44	=44	=44	=44
1.G	2e-	[0g	4g
.	.	.	4a
.	4d	.	4b-
.	4c	.	4cc
.	2B-	.	2dd
2C	2e-	.	[2cc
=45	=45	=45	=45
1G	1d	0g]	2cc]
.	.	.	2b
1C	1e-	.	1cc
=46	=46	=46	=46
[0G	[0d	[0g	[0b
=47	=47	=47	=47
0G]	0d]	0g]	0b]
==	==	==	==
*-	*-	*-	*-
!!!CDT: 1525/^1526/-1594/2/2
!!!OCY: Italia
!!!AGN: Mass (Parody)
!!!AST: renaissance, vocal
!!!ASW: Motet (unidentified)
!!!PWK: Masses, Book 1
!!!RNB: Cadence finals: D
!!!YOR: Le Opere Complete, v. 1, p. 182
!!!YOO: Rome, Italy: Fratelli Scalera
!!!END: 1992//
!!!EED: John Miller
!!!YEC: Copyright 2000, John Miller
!!!YEN: United States of America
!!!YEM: Rights to all derivative electronic formats reserved.
!!!YEM: Refer to licensing agreement for further details.
!!!YEM: This file must be accompanied by the licensing agreement.
!!!YEM: A copy of the licensing agreement may be found at http://www.music-cog.ohio-state.edu/HumdrumDatabases/Palestrina/license.txt
!!!EMD: converted to Humdrum by Bret Aarden
